X: 226
T:The Scartaglen Jig
R:jig
D:Danu - Danu
Z: alf.warnock@rogers.com
M:6/8
L:1/8
K:Amix
A2a a^ga|A2g gfg|A2a a^ga|efg efg |
[1 A2a a^ga|A2g gfe|agf gfe|d2d dcB:|
[2 agf gfe|fed edc|B2B gfe|d2d dcB||
|:cBA cec|dfd cec|cBA cec|B2B BAB|
cBA cec|dfd cec|B2B gfe|d2d dcB:|
